X:1
T:Jesus Understands!
T:Jesus Understands!
T:William James Kirkpatrick
T:C. Louise (Birdie) Bell, 1903
T:Public Domain Courtesy of the Cyber Hymnal™
T:Public Domain Courtesy of the Cyber Hymnal™
C:William James Kirkpatrick
Z:Public Domain
Z:Courtesy of the Cyber Hymnal™
%%score ( 1 2 ) ( 3 4 )
L:1/8
Q:1/4=107
M:4/4
K:Db
V:1 treble 
V:2 treble 
V:3 bass 
V:4 bass 
V:1
 [FA][FA][=E=G][FA] [_GB][FA][DF][FA] | [FA]2 [EG]2 [EG]4 | [EG][EG][=DF][EG] [Ac][GB][CE][_DF] | %3
w: 1.~Bowed be- neath your bur- den, is there|none to share?|Wear- y with the jour- ney, is there|
w: 2.~Ev- ery heav- y bur- den, He will|glad- ly share,|Are you sad and wear- y? Je- sus|
w: 3.~Though tempt- a- tion meet you, Je- sus|can sus- tain,|Life has vex- ing prob- lems which He|
w: 4.~Wear- y heart, He calls you, “Come to|Me and rest,”|Does the path grow rug- ged? yet His|
 [EG]2 [CA]2 [DF]4 | [FA][FA][=E=G][FA] [Fd]2 [FA]2 | [=E=G][FA][Ad][Ac] [_GB]4 | %6
w: none to care?|Cour- age, way- worn trav- eler,|heed your Lord’s com- mands,|
w: has a care;|Well He knows the path- way|o’er life’s burn- ing sands,|
w: can ex- plain;|Serve Him where He sends you,|though in dist- ant lands,|
w: way is best;|Leave the un- known fu- ture|in the Mas- ter’s hands,|
 [Ge][Ge][GB][Gd] [Fd]2 [FA]2 | [FA][DF][EG][CE] D4 ||"^Refrain" [FA]3 [FA] [GB][FA] [DF]2 | %9
w: There’s a thought to cheer you,|Je- sus un- der- stands.||
w: Cour- age, faint- ing pil- grim,|Je- sus un- der- stands.|Yes, He un- der- stands,|
w: Do not doubt or quest- ion,|Je- sus un- der- stands.||
w: Whe- ther sad or joy- ful,|Je- sus un- der- stands.||
 [Ad][Ad][Ac][GB] [FA]4 | [EG]3 [EG] [Gc][GB] [GA]2 | [EG][EG][FA][EG] [DF]4 | %12
w: |||
w: All His ways are best.|Hear, He calls to you,|“Come to Me and rest.”|
w: |||
w: |||
 [FA][FA][=E=G][FA] [Fd]2 [FA]2 [EG][FA][Ad][Ac] [_GB]4 | [Ge][Ge][GB][Gd] [Fd]2 [FA]2 | %14
w: ||
w: Leave the un- known fu- ture in the Mas- ter’s hand,|Whe- ther sad or joy- ful,|
w: ||
w: ||
 [FA][DF][EG][CE] D4 |] %15
w: |
w: Je- sus un- der- stands.|
w: |
w: |
V:2
 x8 | x8 | x8 | x8 | x8 | x8 | x8 | x4 D4 || x8 | x8 | x8 | x8 | x16 | x8 | x4 D4 |] %15
V:3
 [D,D][D,D][D,D][D,D] [D,D][D,D][D,A,][D,D] | [A,D]2 [A,C]2 [A,C]4 | %2
 [A,,A,][A,,A,][A,,A,][A,,A,] [A,,A,][A,,A,][A,,A,][A,,A,] | [A,,A,]2 [A,,A,]2 [D,A,]4 | %4
 [D,D][D,D][D,D][D,D] [D,A,]2 [D,D]2 | [D,D][D,D][F,D][F,D] [G,D]4 | %6
 [G,B,][G,B,][G,B,][G,B,] A,2 [A,D]2 | [A,,A,][A,,A,][A,,A,][A,,A,] [D,F,]4 || %8
 [D,D][D,D][D,D][D,D] [D,D][D,D] [D,A,]2 | [F,A,][F,D][G,D][G,D] [D,D]4 | %10
 [A,,C][A,C][A,C][A,C] [A,E][A,D] [A,C]2 | [A,,A,][A,,A,][A,,A,][A,,A,] [D,A,]4 | %12
 [D,D][D,D][D,D][D,D] [D,A,]2 [D,D]2 [D,D][D,D][F,D][F,D] [G,D]4 | %13
 [G,B,][G,B,][G,B,][G,B,] A,2 [A,D]2 | [A,,A,][A,,A,][A,,A,][A,,A,] [D,F,]4 |] %15
V:4
 x8 | x8 | x8 | x8 | x8 | x8 | x4 A,2 x2 | x8 || x8 | x8 | x8 | x8 | x16 | x4 A,2 x2 | x8 |] %15

